public/images/logo-small.svg

<svg fill="none" height="40" viewBox="0 0 280 40" width="280" xmlns="http://www.w3.org/2000/svg" xmlns:xlink="http://www.w3.org/1999/xlink"><filter id="a" color-interpolation-filters="sRGB" filterUnits="userSpaceOnUse" height="40" width="40" x="0" y="0"><feFlood flood-opacity="0" result="BackgroundImageFix"/><feColorMatrix in="SourceAlpha" result="hardAlpha" type="matrix" values="0 0 0 0 0 0 0 0 0 0 0 0 0 0 0 0 0 0 127 0"/><feOffset dy="2"/><feGaussianBlur stdDeviation="4"/><feComposite in2="hardAlpha" operator="out"/><feColorMatrix type="matrix" values="0 0 0 0 1 0 0 0 0 0.619006 0 0 0 0 0.348077 0 0 0 0.2 0"/><feBlend in2="BackgroundImageFix" mode="normal" result="effect1_dropShadow_13460_64268"/><feBlend in="SourceGraphic" in2="effect1_dropShadow_13460_64268" mode="normal" result="shape"/></filter><g filter="url(#a)"><rect fill="#ff8442" height="24" rx="6" width="24" x="8" y="6"/><path d="m23.1541 15.0577h-.3214c-.4286 0-.8572.0385-1.2858.1346-.4285.1154-.7142.3077-.8214.5769-.0357.077-.0357.1539-.0357.2308 0 .2692.2143.5.5357.7115.25.1539.5714.3077.8572.4616.5.3077 1.75.5192 2.2857.7884.5714.2693 1.0714.5577 1.6071.8462.5357.3077.7857.6923.9643 1.0769.1429.3077.2143.5962.2143.9039 0 .1923-.0357.4038-.1072.5961-.0714.4808-.4642.8846-.75 1.2885-.2142.25-.5357.4615-.7857.7115-.0714.0962-.25.1731-.3928.2692-.3572.2116-.75.4039-1.2143.5577-.0357.0193-.1072.0385-.1786.0577-1.3571.3462-2.75.5962-4.7143.6923-.4285.0193-1.1071.0385-1.6071.0385h-.2143c-.8929 0-1.0112-.0385-1.6898-.0385-.25 0-.7857-.1346-1-.2115-.5-.25-.5918-.3168-.75-.5-.299-.3462-.75-.7692-.75-1.25 0-.6346 0-.4231 0-1 0-.2885.451-1.0246.451-1.0246s.049-.2254.299-.4754l.5-.25s.5714-.25.75-.25c0 0 .2612.0192.8327.0192.4642 0 .9285-.0192 1.2857-.0769.8571-.1346 1.6428-.3461 2.2143-.7308.2857-.1923.4285-.423.4285-.6346 0-.2307-.1785-.4615-.5-.6154-.25-.1538-.4643-.3077-.7143-.4615-.3928-.2115-1-.4038-1.4642-.5769-.3572-.1154-.6786-.25-.9643-.3846-.4286-.2116-.8572-.4423-1.25-.6731-.5357-.3269-.8572-.6539-1.25-1.1154-.25-.3269-.3215-.5385-.3572-.8846v-.1154c0-.9231 1.1072-1.4808 2.1072-1.8846 1.2857-.5385 2.8571-.7116 4.9643-.8269.5-.0385 1.0357-.0385 1.5357-.0385 1.4643 0 3.3214 0 4.4285.4038.3929.3462.5715.3847.6429.5962l.1786.5385c0 .2115 0 .3653.0357.7115.0357.1923.0357.2885.0357.4808 0 .3461-.0357.3889-.25.5192l-.25.25c-.5.25-1 .5-1.25.5-.2857 0-1.25.0577-2.2857.0577z" fill="#fff"/></g><g fill="#333"><path d="m108.249 24.264c-.891 0-1.678-.1947-2.36-.584-.683-.3947-1.219-.92-1.608-1.576-.384-.656-.576-1.376-.576-2.16 0-.5707.109-1.1147.328-1.632.224-.5227.538-.984.944-1.384.405-.4054.885-.7227 1.44-.952.554-.2347 1.165-.352 1.832-.352.89 0 1.677.1973 2.36.592.682.3893 1.216.912 1.6 1.568s.576 1.376.576 2.16c0 .5706-.11 1.1173-.328 1.64-.219.5173-.531.976-.936 1.376-.406.4-.886.7173-1.44.952-.555.2346-1.166.352-1.832.352zm0-2.256c.373 0 .709-.0827 1.008-.248.298-.1707.533-.4107.704-.72.17-.3094.256-.6747.256-1.096 0-.4267-.086-.792-.256-1.096-.166-.3094-.398-.5467-.696-.712-.299-.1707-.638-.256-1.016-.256-.379 0-.718.0853-1.016.256-.299.1653-.534.4026-.704.712-.171.304-.256.6693-.256 1.096 0 .4213.085.7866.256 1.096.176.3093.413.5493.712.72.298.1653.634.248 1.008.248z"/><path d="m97.5843 24.264c-.7733 0-1.4666-.1787-2.08-.536-.6133-.3627-1.096-.8667-1.448-1.512-.352-.6507-.528-1.408-.528-2.272 0-.6134.1014-1.1814.304-1.704.2027-.5227.4854-.9787.848-1.368.368-.3947.8027-.7014 1.304-.92.5014-.2187 1.0507-.328 1.648-.328.624 0 1.1867.1226 1.688.368.5014.2453.9387.6106 1.3117 1.096l-.6.6v-5.184h2.624v11.52h-2.264v-2.12l.36.592c-.234.5226-.626.9493-1.1757 1.28-.5493.3253-1.2133.488-1.992.488zm.488-2.256c.3734 0 .7094-.0827 1.008-.248.2987-.1707.5334-.4107.704-.72.1707-.3094.2557-.6747.2557-1.096 0-.4267-.085-.792-.2557-1.096-.1653-.3094-.3973-.5467-.696-.712-.2986-.1707-.6373-.256-1.016-.256-.3786 0-.7173.0853-1.016.256-.2986.1653-.5333.4026-.704.712-.1706.304-.256.6693-.256 1.096 0 .4213.0854.7866.256 1.096.176.3093.4134.5493.712.72.2987.1653.6347.248 1.008.248z"/><path d="m88.0562 20.648v-2.296h4.704v2.296z"/><path d="m82.7354 24.264c-.8907 0-1.6773-.1947-2.36-.584-.6827-.3947-1.2187-.92-1.608-1.576-.384-.656-.576-1.376-.576-2.16 0-.5707.1093-1.1147.328-1.632.224-.5227.5387-.984.944-1.384.4053-.4054.8853-.7227 1.44-.952.5547-.2347 1.1653-.352 1.832-.352.8907 0 1.6773.1973 2.36.592.6827.3893 1.216.912 1.6 1.568s.576 1.376.576 2.16c0 .5706-.1093 1.1173-.328 1.64-.2187.5173-.5307.976-.936 1.376s-.8853.7173-1.44.952c-.5547.2346-1.1653.352-1.832.352zm0-2.256c.3733 0 .7093-.0827 1.008-.248.2987-.1707.5333-.4107.704-.72.1707-.3094.256-.6747.256-1.096 0-.4267-.0853-.792-.256-1.096-.1653-.3094-.3973-.5467-.696-.712-.2987-.1707-.6373-.256-1.016-.256s-.7173.0853-1.016.256c-.2987.1653-.5333.4026-.704.712-.1707.304-.256.6693-.256 1.096 0 .4213.0853.7866.256 1.096.176.3093.4133.5493.712.72.2987.1653.6347.248 1.008.248z"/><path d="m75.7397 24.264c-.9067 0-1.6187-.2533-2.136-.76-.5174-.512-.776-1.2747-.776-2.288v-7.688h2.624v2.336h1.912v2.08h-1.912v2.816c0 .4373.096.744.288.92s.44.264.744.264c.1653 0 .328-.0187.488-.056.1653-.0427.3173-.104.456-.184l.336 2.056c-.2507.1387-.552.256-.904.352-.352.1013-.7254.152-1.12.152zm-4.496-6.32v-2.08h1.824v2.08z"/><path d="m62.1717 24.264c-.7733 0-1.4666-.1787-2.08-.536-.6133-.3627-1.096-.8667-1.448-1.512-.352-.6507-.528-1.408-.528-2.272 0-.6134.1014-1.1814.304-1.704.2027-.5227.4854-.9787.848-1.368.368-.3947.8027-.7014 1.304-.92.5014-.2187 1.0507-.328 1.648-.328.624 0 1.1867.1226 1.688.368.5014.2453.9387.6106 1.312 1.096l-.6.6v-5.184h2.624v11.52h-2.264v-2.12l.36.592c-.2346.5226-.6266.9493-1.176 1.28-.5493.3253-1.2133.488-1.992.488zm.488-2.256c.3734 0 .7094-.0827 1.008-.248.2987-.1707.5334-.4107.704-.72.1707-.3094.256-.6747.256-1.096 0-.4267-.0853-.792-.256-1.096-.1653-.3094-.3973-.5467-.696-.712-.2986-.1707-.6373-.256-1.016-.256-.3786 0-.7173.0853-1.016.256-.2986.1653-.5333.4026-.704.712-.1706.304-.256.6693-.256 1.096 0 .4213.0854.7866.256 1.096.176.3093.4134.5493.712.72.2987.1653.6347.248 1.008.248z"/><path d="m54.4313 24.024v-8.16h2.624v8.16zm1.312-9.368c-.4213 0-.7893-.1307-1.104-.392-.3093-.2667-.464-.6214-.464-1.064 0-.4534.1547-.8107.464-1.072.3147-.2614.6827-.392 1.104-.392.4267 0 .7947.1306 1.104.392.3093.2613.464.6186.464 1.072 0 .4426-.1547.7973-.464 1.064-.3093.2613-.6773.392-1.104.392z"/><path d="m50.0986 24.024v-11.52h2.624v11.52z"/><path d="m44.504 24.264c-.848 0-1.672-.1254-2.472-.376-.8-.2507-1.4773-.6134-2.032-1.088l1.248-1.984c.2347.2506.5333.4666.896.648.3627.1813.7493.3226 1.16.424.416.096.8187.144 1.208.144.5493 0 .9947-.0907 1.336-.272.3467-.1867.52-.456.52-.808 0-.288-.1253-.5307-.376-.728-.2453-.1974-.7067-.3867-1.384-.568l-.96-.272c-1.152-.32-1.9813-.7574-2.488-1.312-.5067-.5547-.76-1.2214-.76-2 0-.5014.1067-.9627.32-1.384.2133-.4267.512-.7947.896-1.104.384-.3147.8347-.5574 1.352-.728.5227-.176 1.0907-.264 1.704-.264.848 0 1.6347.1253 2.36.376.7307.2453 1.3173.5813 1.76 1.008l-1.296 1.92c-.2027-.2134-.4533-.4-.752-.56s-.624-.2854-.976-.376c-.352-.0907-.7067-.136-1.064-.136-.352 0-.6587.0453-.92.136-.2613.0906-.4667.2213-.616.392-.144.1653-.216.3626-.216.592 0 .1866.0533.344.16.472.112.1226.296.24.552.352.2613.112.6133.2346 1.056.368l.976.288c1.1467.336 1.976.7573 2.488 1.264.512.5066.768 1.1653.768 1.976 0 .7093-.1813 1.336-.544 1.88-.3627.5386-.8773.96-1.544 1.264-.6613.304-1.448.456-2.36.456z"/></g></svg>

<svg width="280" height="40" viewBox="0 0 280 40" fill="none" xmlns="http://www.w3.org/2000/svg">
<g filter="url(#filter0_d_13460_64268)">
<rect x="8" y="6" width="24" height="24" rx="6" fill="#FF8442"/>
<path d="M23.1541 15.0577H22.8327C22.4041 15.0577 21.9755 15.0962 21.5469 15.1923C21.1184 15.3077 20.8327 15.5 20.7255 15.7692C20.6898 15.8462 20.6898 15.9231 20.6898 16C20.6898 16.2692 20.9041 16.5 21.2255 16.7115C21.4755 16.8654 21.7969 17.0192 22.0827 17.1731C22.5827 17.4808 23.8327 17.6923 24.3684 17.9615C24.9398 18.2308 25.4398 18.5192 25.9755 18.8077C26.5112 19.1154 26.7612 19.5 26.9398 19.8846C27.0827 20.1923 27.1541 20.4808 27.1541 20.7885C27.1541 20.9808 27.1184 21.1923 27.0469 21.3846C26.9755 21.8654 26.5827 22.2692 26.2969 22.6731C26.0827 22.9231 25.7612 23.1346 25.5112 23.3846C25.4398 23.4808 25.2612 23.5577 25.1184 23.6538C24.7612 23.8654 24.3684 24.0577 23.9041 24.2115C23.8684 24.2308 23.7969 24.25 23.7255 24.2692C22.3684 24.6154 20.9755 24.8654 19.0112 24.9615C18.5827 24.9808 17.9041 25 17.4041 25H17.1898C16.2969 25 16.1786 24.9615 15.5 24.9615C15.25 24.9615 14.7143 24.8269 14.5 24.75C14 24.5 13.9082 24.4332 13.75 24.25C13.451 23.9038 13 23.4808 13 23C13 22.3654 13 22.5769 13 22C13 21.7115 13.451 20.9754 13.451 20.9754C13.451 20.9754 13.5 20.75 13.75 20.5L14.25 20.25C14.25 20.25 14.8214 20 15 20C15 20 15.2612 20.0192 15.8327 20.0192C16.2969 20.0192 16.7612 20 17.1184 19.9423C17.9755 19.8077 18.7612 19.5962 19.3327 19.2115C19.6184 19.0192 19.7612 18.7885 19.7612 18.5769C19.7612 18.3462 19.5827 18.1154 19.2612 17.9615C19.0112 17.8077 18.7969 17.6538 18.5469 17.5C18.1541 17.2885 17.5469 17.0962 17.0827 16.9231C16.7255 16.8077 16.4041 16.6731 16.1184 16.5385C15.6898 16.3269 15.2612 16.0962 14.8684 15.8654C14.3327 15.5385 14.0112 15.2115 13.6184 14.75C13.3684 14.4231 13.2969 14.2115 13.2612 13.8654V13.75C13.2612 12.8269 14.3684 12.2692 15.3684 11.8654C16.6541 11.3269 18.2255 11.1538 20.3327 11.0385C20.8327 11 21.3684 11 21.8684 11C23.3327 11 25.1898 11 26.2969 11.4038C26.6898 11.75 26.8684 11.7885 26.9398 12L27.1184 12.5385C27.1184 12.75 27.1184 12.9038 27.1541 13.25C27.1898 13.4423 27.1898 13.5385 27.1898 13.7308C27.1898 14.0769 27.1541 14.1197 26.9398 14.25L26.6898 14.5C26.1898 14.75 25.6898 15 25.4398 15C25.1541 15 24.1898 15.0577 23.1541 15.0577Z" fill="white"/>
</g>
<path d="M108.249 24.264C107.358 24.264 106.571 24.0693 105.889 23.68C105.206 23.2853 104.67 22.76 104.281 22.104C103.897 21.448 103.705 20.728 103.705 19.944C103.705 19.3733 103.814 18.8293 104.033 18.312C104.257 17.7893 104.571 17.328 104.977 16.928C105.382 16.5226 105.862 16.2053 106.417 15.976C106.971 15.7413 107.582 15.624 108.249 15.624C109.139 15.624 109.926 15.8213 110.609 16.216C111.291 16.6053 111.825 17.128 112.209 17.784C112.593 18.44 112.785 19.16 112.785 19.944C112.785 20.5146 112.675 21.0613 112.457 21.584C112.238 22.1013 111.926 22.56 111.521 22.96C111.115 23.36 110.635 23.6773 110.081 23.912C109.526 24.1466 108.915 24.264 108.249 24.264ZM108.249 22.008C108.622 22.008 108.958 21.9253 109.257 21.76C109.555 21.5893 109.79 21.3493 109.961 21.04C110.131 20.7306 110.217 20.3653 110.217 19.944C110.217 19.5173 110.131 19.152 109.961 18.848C109.795 18.5386 109.563 18.3013 109.265 18.136C108.966 17.9653 108.627 17.88 108.249 17.88C107.87 17.88 107.531 17.9653 107.233 18.136C106.934 18.3013 106.699 18.5386 106.529 18.848C106.358 19.152 106.273 19.5173 106.273 19.944C106.273 20.3653 106.358 20.7306 106.529 21.04C106.705 21.3493 106.942 21.5893 107.241 21.76C107.539 21.9253 107.875 22.008 108.249 22.008Z" fill="#333333"/>
<path d="M97.5843 24.264C96.811 24.264 96.1177 24.0853 95.5043 23.728C94.891 23.3653 94.4083 22.8613 94.0563 22.216C93.7043 21.5653 93.5283 20.808 93.5283 19.944C93.5283 19.3306 93.6297 18.7626 93.8323 18.24C94.035 17.7173 94.3177 17.2613 94.6803 16.872C95.0483 16.4773 95.483 16.1706 95.9843 15.952C96.4857 15.7333 97.035 15.624 97.6323 15.624C98.2563 15.624 98.819 15.7466 99.3203 15.992C99.8217 16.2373 100.259 16.6026 100.632 17.088L100.032 17.688V12.504H102.656V24.024H100.392V21.904L100.752 22.496C100.518 23.0186 100.126 23.4453 99.5763 23.776C99.027 24.1013 98.363 24.264 97.5843 24.264ZM98.0723 22.008C98.4457 22.008 98.7817 21.9253 99.0803 21.76C99.379 21.5893 99.6137 21.3493 99.7843 21.04C99.955 20.7306 100.04 20.3653 100.04 19.944C100.04 19.5173 99.955 19.152 99.7843 18.848C99.619 18.5386 99.387 18.3013 99.0883 18.136C98.7897 17.9653 98.451 17.88 98.0723 17.88C97.6937 17.88 97.355 17.9653 97.0563 18.136C96.7577 18.3013 96.523 18.5386 96.3523 18.848C96.1817 19.152 96.0963 19.5173 96.0963 19.944C96.0963 20.3653 96.1817 20.7306 96.3523 21.04C96.5283 21.3493 96.7657 21.5893 97.0643 21.76C97.363 21.9253 97.699 22.008 98.0723 22.008Z" fill="#333333"/>
<path d="M88.0562 20.648V18.352H92.7602V20.648H88.0562Z" fill="#333333"/>
<path d="M82.7354 24.264C81.8447 24.264 81.0581 24.0693 80.3754 23.68C79.6927 23.2853 79.1567 22.76 78.7674 22.104C78.3834 21.448 78.1914 20.728 78.1914 19.944C78.1914 19.3733 78.3007 18.8293 78.5194 18.312C78.7434 17.7893 79.0581 17.328 79.4634 16.928C79.8687 16.5226 80.3487 16.2053 80.9034 15.976C81.4581 15.7413 82.0687 15.624 82.7354 15.624C83.6261 15.624 84.4127 15.8213 85.0954 16.216C85.7781 16.6053 86.3114 17.128 86.6954 17.784C87.0794 18.44 87.2714 19.16 87.2714 19.944C87.2714 20.5146 87.1621 21.0613 86.9434 21.584C86.7247 22.1013 86.4127 22.56 86.0074 22.96C85.6021 23.36 85.1221 23.6773 84.5674 23.912C84.0127 24.1466 83.4021 24.264 82.7354 24.264ZM82.7354 22.008C83.1087 22.008 83.4447 21.9253 83.7434 21.76C84.0421 21.5893 84.2767 21.3493 84.4474 21.04C84.6181 20.7306 84.7034 20.3653 84.7034 19.944C84.7034 19.5173 84.6181 19.152 84.4474 18.848C84.2821 18.5386 84.0501 18.3013 83.7514 18.136C83.4527 17.9653 83.1141 17.88 82.7354 17.88C82.3567 17.88 82.0181 17.9653 81.7194 18.136C81.4207 18.3013 81.1861 18.5386 81.0154 18.848C80.8447 19.152 80.7594 19.5173 80.7594 19.944C80.7594 20.3653 80.8447 20.7306 81.0154 21.04C81.1914 21.3493 81.4287 21.5893 81.7274 21.76C82.0261 21.9253 82.3621 22.008 82.7354 22.008Z" fill="#333333"/>
<path d="M75.7397 24.264C74.833 24.264 74.121 24.0107 73.6037 23.504C73.0863 22.992 72.8277 22.2293 72.8277 21.216V13.528H75.4517V15.864H77.3637V17.944H75.4517V20.76C75.4517 21.1973 75.5477 21.504 75.7397 21.68C75.9317 21.856 76.1797 21.944 76.4837 21.944C76.649 21.944 76.8117 21.9253 76.9717 21.888C77.137 21.8453 77.289 21.784 77.4277 21.704L77.7637 23.76C77.513 23.8987 77.2117 24.016 76.8597 24.112C76.5077 24.2133 76.1343 24.264 75.7397 24.264ZM71.2437 17.944V15.864H73.0677V17.944H71.2437Z" fill="#333333"/>
<path d="M62.1717 24.264C61.3984 24.264 60.7051 24.0853 60.0917 23.728C59.4784 23.3653 58.9957 22.8613 58.6437 22.216C58.2917 21.5653 58.1157 20.808 58.1157 19.944C58.1157 19.3306 58.2171 18.7626 58.4197 18.24C58.6224 17.7173 58.9051 17.2613 59.2677 16.872C59.6357 16.4773 60.0704 16.1706 60.5717 15.952C61.0731 15.7333 61.6224 15.624 62.2197 15.624C62.8437 15.624 63.4064 15.7466 63.9077 15.992C64.4091 16.2373 64.8464 16.6026 65.2197 17.088L64.6197 17.688V12.504H67.2437V24.024H64.9797V21.904L65.3397 22.496C65.1051 23.0186 64.7131 23.4453 64.1637 23.776C63.6144 24.1013 62.9504 24.264 62.1717 24.264ZM62.6597 22.008C63.0331 22.008 63.3691 21.9253 63.6677 21.76C63.9664 21.5893 64.2011 21.3493 64.3717 21.04C64.5424 20.7306 64.6277 20.3653 64.6277 19.944C64.6277 19.5173 64.5424 19.152 64.3717 18.848C64.2064 18.5386 63.9744 18.3013 63.6757 18.136C63.3771 17.9653 63.0384 17.88 62.6597 17.88C62.2811 17.88 61.9424 17.9653 61.6437 18.136C61.3451 18.3013 61.1104 18.5386 60.9397 18.848C60.7691 19.152 60.6837 19.5173 60.6837 19.944C60.6837 20.3653 60.7691 20.7306 60.9397 21.04C61.1157 21.3493 61.3531 21.5893 61.6517 21.76C61.9504 21.9253 62.2864 22.008 62.6597 22.008Z" fill="#333333"/>
<path d="M54.4313 24.024V15.864H57.0553V24.024H54.4313ZM55.7433 14.656C55.322 14.656 54.954 14.5253 54.6393 14.264C54.33 13.9973 54.1753 13.6426 54.1753 13.2C54.1753 12.7466 54.33 12.3893 54.6393 12.128C54.954 11.8666 55.322 11.736 55.7433 11.736C56.17 11.736 56.538 11.8666 56.8473 12.128C57.1566 12.3893 57.3113 12.7466 57.3113 13.2C57.3113 13.6426 57.1566 13.9973 56.8473 14.264C56.538 14.5253 56.17 14.656 55.7433 14.656Z" fill="#333333"/>
<path d="M50.0986 24.024V12.504H52.7226V24.024H50.0986Z" fill="#333333"/>
<path d="M44.504 24.264C43.656 24.264 42.832 24.1386 42.032 23.888C41.232 23.6373 40.5547 23.2746 40 22.8L41.248 20.816C41.4827 21.0666 41.7813 21.2826 42.144 21.464C42.5067 21.6453 42.8933 21.7866 43.304 21.888C43.72 21.984 44.1227 22.032 44.512 22.032C45.0613 22.032 45.5067 21.9413 45.848 21.76C46.1947 21.5733 46.368 21.304 46.368 20.952C46.368 20.664 46.2427 20.4213 45.992 20.224C45.7467 20.0266 45.2853 19.8373 44.608 19.656L43.648 19.384C42.496 19.064 41.6667 18.6266 41.16 18.072C40.6533 17.5173 40.4 16.8506 40.4 16.072C40.4 15.5706 40.5067 15.1093 40.72 14.688C40.9333 14.2613 41.232 13.8933 41.616 13.584C42 13.2693 42.4507 13.0266 42.968 12.856C43.4907 12.68 44.0587 12.592 44.672 12.592C45.52 12.592 46.3067 12.7173 47.032 12.968C47.7627 13.2133 48.3493 13.5493 48.792 13.976L47.496 15.896C47.2933 15.6826 47.0427 15.496 46.744 15.336C46.4453 15.176 46.12 15.0506 45.768 14.96C45.416 14.8693 45.0613 14.824 44.704 14.824C44.352 14.824 44.0453 14.8693 43.784 14.96C43.5227 15.0506 43.3173 15.1813 43.168 15.352C43.024 15.5173 42.952 15.7146 42.952 15.944C42.952 16.1306 43.0053 16.288 43.112 16.416C43.224 16.5386 43.408 16.656 43.664 16.768C43.9253 16.88 44.2773 17.0026 44.72 17.136L45.696 17.424C46.8427 17.76 47.672 18.1813 48.184 18.688C48.696 19.1946 48.952 19.8533 48.952 20.664C48.952 21.3733 48.7707 22 48.408 22.544C48.0453 23.0826 47.5307 23.504 46.864 23.808C46.2027 24.112 45.416 24.264 44.504 24.264Z" fill="#333333"/>
<defs>
<filter id="filter0_d_13460_64268" x="0" y="0" width="40" height="40" filterUnits="userSpaceOnUse" color-interpolation-filters="sRGB">
<feFlood flood-opacity="0" result="BackgroundImageFix"/>
<feColorMatrix in="SourceAlpha" type="matrix" values="0 0 0 0 0 0 0 0 0 0 0 0 0 0 0 0 0 0 127 0" result="hardAlpha"/>
<feOffset dy="2"/>
<feGaussianBlur stdDeviation="4"/>
<feComposite in2="hardAlpha" operator="out"/>
<feColorMatrix type="matrix" values="0 0 0 0 1 0 0 0 0 0.619006 0 0 0 0 0.348077 0 0 0 0.2 0"/>
<feBlend mode="normal" in2="BackgroundImageFix" result="effect1_dropShadow_13460_64268"/>
<feBlend mode="normal" in="SourceGraphic" in2="effect1_dropShadow_13460_64268" result="shape"/>
</filter>
</defs>
</svg>
